src/images/crypto-icon-svg/krb.svg

<svg xmlns="http://www.w3.org/2000/svg" width="32" height="32" viewBox="0 0 32 32">
  <g fill="none">
    <circle cx="16" cy="16" r="16" fill="#00AEEF"/>
    <path fill="#FFF" d="M15.7608696,14.7064901 C15.9976812,14.6648494 16.2081159,14.5765596 16.3921739,14.4414776 C16.5762319,14.3063956 16.75,14.0778725 16.9130435,13.7662109 L20.5382609,6.77929697 C20.6801449,6.54547926 20.853913,6.35859681 21.053913,6.21306889 C21.2537681,6.0728355 21.4905797,6 21.7536232,6 L24.0527536,6 L19.5386957,14.2182489 C19.3386957,14.5559538 19.1124638,14.8312692 18.8598551,15.044195 C18.602029,15.2571208 18.317971,15.4182461 18.0075362,15.5272847 C18.4915942,15.6519207 18.8966667,15.8545436 19.2281159,16.1401618 C19.5543478,16.4207717 19.8647826,16.8157147 20.1542029,17.3245616 L24.5,26 L21.9692754,26 C21.4589855,26 21.0484058,25.7246847 20.7381159,25.1792054 L17.1762319,17.8285432 C16.992029,17.5012843 16.7921739,17.2676097 16.5763768,17.1273763 C16.3605797,16.9871429 16.0871014,16.9040045 15.7608696,16.8831126 L15.7608696,20.6130346 L13.7721739,20.6130346 L13.7721739,16.8673721 L12.3095652,16.8673721 L12.3095652,26 L9.5,26 L9.5,6 L12.3095652,6 L12.3095652,14.7376849 L13.7721739,14.7376849 L13.7721739,10.4156346 L15.7608696,10.4156346 L15.7608696,14.7064901 Z"/>
  </g>
</svg>

<svg xmlns="http://www.w3.org/2000/svg" width="32" height="32"><g fill="none"><circle cx="16" cy="16" r="16" fill="#00AEEF"/><path fill="#FFF" d="M15.76 14.706c.238-.041.448-.13.632-.265s.358-.363.521-.675l3.625-6.987c.142-.234.316-.42.516-.566.2-.14.437-.213.7-.213h2.299l-4.514 8.218c-.2.338-.427.613-.68.826a2.772 2.772 0 0 1-.851.483c.484.125.889.328 1.22.613.326.28.637.676.926 1.185L24.5 26h-2.53c-.511 0-.922-.275-1.232-.82l-3.562-7.351c-.184-.328-.384-.561-.6-.702-.215-.14-.489-.223-.815-.244v3.73h-1.989v-3.746H12.31V26H9.5V6h2.81v8.738h1.462v-4.322h1.989v4.29z"/></g></svg>
